packages/crayons-icon/icons/new.svg

<?xml version="1.0" encoding="UTF-8"?>
<svg width="14px" height="14px" viewBox="0 0 14 14" version="1.1" xmlns="http://www.w3.org/2000/svg" xmlns:xlink="http://www.w3.org/1999/xlink">
    <!-- Generator: Sketch 52.6 (67491) - http://www.bohemiancoding.com/sketch -->
    <title>icon/new</title>
    <desc>Created with Sketch.</desc>
    <g id="Icons-✅" stroke="none" stroke-width="1" fill="none" fill-rule="evenodd">
        <g id="Icons" transform="translate(-819.000000, -1465.000000)" fill="currentColor">
            <g id="icon/new" transform="translate(819.000000, 1465.000000)">
                <g id="new">
                    <path d="M9.76,6.3 C10.1465993,6.3 10.46,6.61340068 10.46,7 C10.46,7.38659932 10.1465993,7.7 9.76,7.7 L7.7,7.7 L7.7,9.76 C7.69999998,10.1465993 7.38659931,10.46 7,10.46 C6.61340069,10.46 6.30000002,10.1465993 6.3,9.76 L6.3,7.7 L4.24,7.7 C3.98991408,7.70000001 3.75882516,7.56658077 3.63378219,7.35000001 C3.50873923,7.13341925 3.50873923,6.86658075 3.63378219,6.64999999 C3.75882516,6.43341923 3.98991408,6.29999999 4.24,6.3 L6.3,6.3 L6.3,4.24 C6.3,3.85340068 6.61340068,3.54 7,3.54 C7.38659932,3.54 7.7,3.85340068 7.7,4.24 L7.7,6.3 L9.76,6.3 Z M11.6,8.8817842e-16 C12.9232072,0.0054791892 13.9945208,1.0767928 14,2.4 L14,11.6 C13.9945208,12.9232072 12.9232072,13.9945208 11.6,14 L2.4,14 C1.0767928,13.9945208 0.0054791892,12.9232072 8.8817842e-16,11.6 L8.8817842e-16,2.4 C0.0054791892,1.0767928 1.0767928,0.0054791892 2.4,8.8817842e-16 L11.6,8.8817842e-16 Z M12.6,11.6 L12.6,2.4 C12.6,1.84771525 12.1522847,1.4 11.6,1.4 L2.4,1.4 C1.84771525,1.4 1.4,1.84771525 1.4,2.4 L1.4,11.6 C1.4,12.1522847 1.84771525,12.6 2.4,12.6 L11.6,12.6 C12.1522847,12.6 12.6,12.1522847 12.6,11.6 Z" id="Combined-Shape"></path>
                </g>
            </g>
        </g>
    </g>
</svg>

<svg viewBox="0 0 14 14"><path d="M9.76 6.3a.7.7 0 0 1 0 1.4H7.7v2.06a.7.7 0 0 1-1.4 0V7.7H4.24a.7.7 0 1 1 0-1.4H6.3V4.24a.7.7 0 0 1 1.4 0V6.3h2.06zM11.6 0A2.41 2.41 0 0 1 14 2.4v9.2a2.41 2.41 0 0 1-2.4 2.4H2.4A2.41 2.41 0 0 1 0 11.6V2.4A2.41 2.41 0 0 1 2.4 0h9.2zm1 11.6V2.4a1 1 0 0 0-1-1H2.4a1 1 0 0 0-1 1v9.2a1 1 0 0 0 1 1h9.2a1 1 0 0 0 1-1z" fill="currentColor" fill-rule="evenodd"/></svg>
